X:7676
T:Trip to London
O:england
M:6/8
L:1/8
S:Armitt MS
K:B_ major
DFB dcB|ABc GFE|DFB dcB|FBA B3:||:Bdf Bdf|bag fed|Bdf Bdf|gec cAF|Bdf fg
a|bag fed|cde dcB|GBA B3:||


